X:1
T:James Campbell
M:4/4
L:1/8
K:C
 DD D2 G3 B| AG E2 G3 D| D2 EE GG GG| AGE-E D4| d2 dd BG G2| AG E2 G4|\
 d2 dd B2 G2| AG E2 D4|
